X:5
T:The Cat's Back
C:Timmy-The-Brit McCarthy
R:hornpipe
M:4/4
L:1/8
Z:robin.beech@mcgill.ca
K:D
Ade |: fdAf ecBc | dFAd B3G | FAdA Bcgf | edcB ABcA |
fdAf ecBc | dFAd B3G | FAdA Bced | (3cBA FE D3e ::
afda gece | fdAf e2 fg | afda gece | fdce d2 fg |
afda gece | fAdf ecBc | dFAd BAGF |  EDCE D2 fg :|
